public/assets/images/github.svg

<svg height="250" viewBox="0 0 256 250" width="256" xmlns="http://www.w3.org/2000/svg"><path d="m1956.46691 354.85373c-11.42657-19.578089-26.92599-35.078089-46.50233-46.503497-19.57926-11.425991-40.95396-17.137529-64.13928-17.137529-23.1824 0-44.5641 5.713287-64.13928 17.137529-19.57808 11.424825-35.07692 26.925408-46.50349 46.503497-11.42483 19.577505-17.13753 40.956293-17.13753 64.13578 0 27.843823 8.12354 52.881702 24.37471 75.120047 16.24941 22.240093 37.24126 37.629371 62.97377 46.169581 2.99534.555944 5.21271.164918 6.65443-1.163171 1.44231-1.329836 2.16259-2.995338 2.16259-4.98951 0-.332751-.02856-3.32634-.08392-8.984266-.05711-5.657925-.08391-10.593823-.08391-14.805361l-3.82693.662004c-2.43997.44697-5.51806.636364-9.23426.582751-3.71445-.051865-7.57051-.441142-11.56294-1.164918-3.99417-.717366-7.70921-2.381119-11.14802-4.987763-3.43706-2.606643-5.87704-6.018648-7.31934-10.230769l-1.66376-3.828671c-1.10897-2.548951-2.85489-5.380536-5.24009-8.484266-2.3852-3.106643-4.7972-5.212704-7.23718-6.321678l-1.16492-.833916c-.77622-.554196-1.4965-1.222611-2.16259-1.998252-.6655-.775641-1.16375-1.551865-1.4965-2.329254-.33333-.777972-.05711-1.416084.83159-1.916667.88869-.500583 2.49475-.74359 4.82517-.74359l3.32634.497087c2.21853.444638 4.9627 1.772727 8.23601 3.992424 3.27157 2.217949 5.96096 5.101399 8.06877 8.649184 2.55245 4.548951 5.62762 8.015152 9.23426 10.40035 3.60373 2.385198 7.23718 3.575757 10.89686 3.575757 3.65967 0 6.82051-.277389 9.48368-.829254 2.66026-.554778 5.15618-1.388694 7.4866-2.497086.99825-7.434732 3.7162-13.14627 8.15151-17.138695-6.32168-.664335-12.00524-1.664918-17.05361-2.995338-5.04545-1.332167-10.25932-3.494172-15.63811-6.491841-5.3817-2.99359-9.84616-6.710956-13.39452-11.145688-3.54896-4.437063-6.46154-10.262238-8.73369-17.470279-2.27331-7.210956-3.41025-15.529138-3.41025-24.956877 0-13.42366 4.38228-24.846737 13.1451-34.275641-4.10489-10.092075-3.71736-21.405594 1.16375-33.939394 3.21679-.999417 7.98718-.249417 14.30886 2.245338 6.32285 2.495921 10.95222 4.634033 13.89278 6.40676 2.94056 1.772145 5.29662 3.273893 7.07167 4.491842 10.3176-2.882868 20.96504-4.324593 31.94523-4.324593 10.98018 0 21.62995 1.441725 31.94813 4.324593l6.32226-3.991259c4.32343-2.66317 9.42891-5.10373 15.3042-7.322261 5.87879-2.217366 10.37412-2.828089 13.48135-1.828672 4.98951 12.534383 5.43415 23.84732 1.32809 33.939394 8.76224 9.428905 13.14627 20.854895 13.14627 34.275641 0 9.427739-1.14103 17.772145-3.41084 25.038462-2.27273 7.267482-5.21037 13.08683-8.8141 17.47028-3.60781 4.382867-8.10082 8.071095-13.47961 11.064102-5.37995 2.995338-10.59557 5.157343-15.64102 6.489511-5.04779 1.332167-10.73135 2.333333-17.05303 2.998834 5.76573 4.989511 8.64918 12.865385 8.64918 23.624126v35.103147c0 1.994172.69347 3.659091 2.08159 4.98951 1.38636 1.328089 3.57575 1.719115 6.57109 1.162588 25.73602-8.539045 46.72786-23.928905 62.97669-46.168998 16.24709-22.238345 24.37355-47.276224 24.37355-75.120047-.00583-23.176573-5.72145-44.553613-17.14103-64.131118z" fill="#fff" fill-rule="evenodd" transform="translate(-1718 -291)"/></svg>

<?xml version="1.0" encoding="UTF-8" standalone="no"?>
<svg width="256px" height="250px" viewBox="0 0 256 250" version="1.1" xmlns="http://www.w3.org/2000/svg" xmlns:xlink="http://www.w3.org/1999/xlink">
    <!-- Generator: Sketch 39.1 (31720) - http://www.bohemiancoding.com/sketch -->
    <title>github</title>
    <desc>Created with Sketch.</desc>
    <defs></defs>
    <g id="Page-1" stroke="none" stroke-width="1" fill="none" fill-rule="evenodd">
        <g id="Artboard" transform="translate(-1718.000000, -291.000000)" fill="#FFFFFF">
            <path d="M1956.46691,354.85373 C1945.04034,335.275641 1929.54092,319.775641 1909.96458,308.350233 C1890.38532,296.924242 1869.01062,291.212704 1845.8253,291.212704 C1822.6429,291.212704 1801.2612,296.925991 1781.68602,308.350233 C1762.10794,319.775058 1746.6091,335.275641 1735.18253,354.85373 C1723.7577,374.431235 1718.045,395.810023 1718.045,418.98951 C1718.045,446.833333 1726.16854,471.871212 1742.41971,494.109557 C1758.66912,516.34965 1779.66097,531.738928 1805.39348,540.279138 C1808.38882,540.835082 1810.60619,540.444056 1812.04791,539.115967 C1813.49022,537.786131 1814.2105,536.120629 1814.2105,534.126457 C1814.2105,533.793706 1814.18194,530.800117 1814.12658,525.142191 C1814.06947,519.484266 1814.04267,514.548368 1814.04267,510.33683 L1810.21574,510.998834 C1807.77577,511.445804 1804.69768,511.635198 1800.98148,511.581585 C1797.26703,511.52972 1793.41097,511.140443 1789.41854,510.416667 C1785.42437,509.699301 1781.70933,508.035548 1778.27052,505.428904 C1774.83346,502.822261 1772.39348,499.410256 1770.95118,495.198135 L1769.28742,491.369464 C1768.17845,488.820513 1766.43253,485.988928 1764.04733,482.885198 C1761.66213,479.778555 1759.25013,477.672494 1756.81015,476.56352 L1755.64523,475.729604 C1754.86901,475.175408 1754.14873,474.506993 1753.48264,473.731352 C1752.81714,472.955711 1752.31889,472.179487 1751.98614,471.402098 C1751.65281,470.624126 1751.92903,469.986014 1752.81773,469.485431 C1753.70642,468.984848 1755.31248,468.741841 1757.6429,468.741841 L1760.96924,469.238928 C1763.18777,469.683566 1765.93194,471.011655 1769.20525,473.231352 C1772.47682,475.449301 1775.16621,478.332751 1777.27402,481.880536 C1779.82647,486.429487 1782.90164,489.895688 1786.50828,492.280886 C1790.11201,494.666084 1793.74546,495.856643 1797.40514,495.856643 C1801.06481,495.856643 1804.22565,495.579254 1806.88882,495.027389 C1809.54908,494.472611 1812.045,493.638695 1814.37542,492.530303 C1815.37367,485.095571 1818.09162,479.384033 1822.52693,475.391608 C1816.20525,474.727273 1810.52169,473.72669 1805.47332,472.39627 C1800.42787,471.064103 1795.214,468.902098 1789.83521,465.904429 C1784.45351,462.910839 1779.98905,459.193473 1776.44069,454.758741 C1772.89173,450.321678 1769.97915,444.496503 1767.707,437.288462 C1765.43369,430.077506 1764.29675,421.759324 1764.29675,412.331585 C1764.29675,398.907925 1768.67903,387.484848 1777.44185,378.055944 C1773.33696,367.963869 1773.72449,356.65035 1778.6056,344.11655 C1781.82239,343.117133 1786.59278,343.867133 1792.91446,346.361888 C1799.23731,348.857809 1803.86668,350.995921 1806.80724,352.768648 C1809.7478,354.540793 1812.10386,356.042541 1813.87891,357.26049 C1824.19651,354.377622 1834.84395,352.935897 1845.82414,352.935897 C1856.80432,352.935897 1867.45409,354.377622 1877.77227,357.26049 L1884.09453,353.269231 C1888.41796,350.606061 1893.52344,348.165501 1899.39873,345.94697 C1905.27752,343.729604 1909.77285,343.118881 1912.88008,344.118298 C1917.86959,356.652681 1918.31423,367.965618 1914.20817,378.057692 C1922.97041,387.486597 1927.35444,398.912587 1927.35444,412.333333 C1927.35444,421.761072 1926.21341,430.105478 1923.9436,437.371795 C1921.67087,444.639277 1918.73323,450.458625 1915.1295,454.842075 C1911.52169,459.224942 1907.02868,462.91317 1901.64989,465.906177 C1896.26994,468.901515 1891.05432,471.06352 1886.00887,472.395688 C1880.96108,473.727855 1875.27752,474.729021 1868.95584,475.394522 C1874.72157,480.384033 1877.60502,488.259907 1877.60502,499.018648 L1877.60502,534.121795 C1877.60502,536.115967 1878.29849,537.780886 1879.68661,539.111305 C1881.07297,540.439394 1883.26236,540.83042 1886.2577,540.273893 C1911.99372,531.734848 1932.98556,516.344988 1949.23439,494.104895 C1965.48148,471.86655 1973.60794,446.828671 1973.60794,418.984848 C1973.60211,395.808275 1967.88649,374.431235 1956.46691,354.85373 L1956.46691,354.85373 Z" id="github"></path>
        </g>
    </g>
</svg>
